!!!OTL: 19. Khtos, metric section only
!!!Genre: Khtsos
!!!Mode: Minor
!!!One Mode: no
!!!Orig_tonic: Ab
**kern
!!pagebreak:original
*clefG2
*k[b-e-]
*g:
*M2/4
*A
=1
!LO:TX:t=[quarter]=80
16gLL
16b-
16cc
16ddJJ
16ccLL
(8qee-/
16dd)
16b-
16ddJJ
=2
16ccLL
(8qee-/
16dd)
16b-
16ddJJ
16ccLL
(8qee-/
16dd)
16b-
16ddJJ
=3
16ddLL
16ccJJ
24ddLL
24cc
24b-JJ
16b-LL
16aJJ
24b-LL
24a
24gJJ
=4
8gL
16ggL
16ggJJ
4gg
=5
16gLL
16b-
16cc
16ddJJ
16ccLL
(8qee-/
16dd)
16b-
16ddJJ
!!linebreak:original
=6
16ccLL
(8qee-/
16dd)
16b-
16ddJJ
16ccLL
(8qee-/
16dd)
16b-
16ddJJ
=7
16ddLL
16ccJJ
24ddLL
24cc
24b-JJ
(16b-LL
16aJJ)
(24b-LL
24a
24gJJ)
=8
4g
4gg
=9:|!
2g
=10!|:
*>B
16aLL
16b-JJ
4cc
16ffLL
16dd-XJJ
=11
4cc
20b-LL
20cc
20dd-X
20cc
20b-JJ
!!linebreak:original
=12
16aLL
16b-JJ
4cc
16b-LL
16aJJ
=13
8g
4gg
8gg
=14
16aLL
16b-JJ
4cc
16ffLL
16dd-XJJ
=15
8ccL
16ffL
16eenJJ
16dd-XLL
16cc
16b-
16aJJ
=16
16b-LL
16cc
16ddn
16b-JJ
8ccL
16b-L
16aJJ
=17
4g
4gg
=18:|!
2g
!!linebreak:original
=19!|:
*>C
16ddLL
16g
16dd
16ffJJ
16ee-LL
16dd
16cc
16ee-JJ
=20
16ddLL
16g
16dd
16ffJJ
16ee-LL
16dd
16cc
16ee-JJ
=21
16ddLL
16g
16b-
16ddJJ
8ccL
16b-L
16aJJ
=22
8gL
16ggL
16ggJJ
8gL
8ggJ
=23
16ddLL
16g
16dd
16ffJJ
16ee-LL
16dd
16cc
16ee-JJ
=24
16ddLL
16g
16dd
16ggJJ
16ffLL
16ee-
16dd
16ccJJ
!!linebreak:original
=25
16ddLL
16g
16b-
16ddJJ
8ccL
16b-L
16aJJ
=26
4g
4gg
=27:|!
2g
=28!|:
*>B1
16aLL
16b-JJ
4cc
16ffLL
16dd-XJJ
=29
4cc
20b-LL
20cc
20dd-X
20cc
20b-JJ
=30
16aLL
16b-JJ
4cc
16b-LL
16aJJ
=31
4g
4gg
=32
16aLL
16b-JJ
4cc
16ffLL
16dd-XJJ
!!linebreak:original
=33
8ccL
16ffL
16eenJJ
16dd-XLL
16cc
16b-
16aJJ
=34
16b-LL
16cc
16ddn
16b-JJ
8ccL
16b-L
16aJJ
=35
4g
4gg
=36:|!|:
*>bM
*B-:
*>D
!LO:TX:a:i:t=Bb-major
16b-LL
16cc
16dd
(8qff/
16ee-JJ)
16ddLL
(8qff/
16ee-)
16dd
(8qff/
16ee-JJ)
=37
8.ddL
16ccJk
16ddLL
16ccJ
8b-J
!!linebreak:original
=38
16ffLL
16gg
(8qgg/
16ff)
16ee-JJ
16ddLL
16b-
16cc
(8qff/
16ee-JJ)
=39
8.ddL
16ccJk
16ddLL
16ccJ
8b-J
=40
16b-LL
16cc
16dd
(8qff/
16ee-JJ)
16ddLL
(8qff/
16ee-)
16dd
(8qff/
16ee-JJ)
=41
8.ddL
16ccJk
16ddLL
16ccJ
8b-J
=42
16ggLL
16dd
16ee-
16ccJJ
16ddLL
16b-
16cc
16aJJ
=43
4.b-
8cc
!!linebreak:original
*>eM
*g:
!LO:TX:a:i:t=G-minor
=44
16dd-XLL
16cc
16dd-
16ccJJ
16dd-LL
16cc
16b-
16aJJ
=45
16b-LL
16cc
16dd-X
16ffJJ
8.ccL
16b-Jk
=46
16ddnLL
16cc
16cc
16b-JJ
16bb-LL
16aa
16aa
16ggJJ
=47
4gg
8.ggL
16ffJk
*>bM
*B-:
!LO:TX:a:i:t=Bb-major
=48
16aa-XLL
16gg
16ff
16ee-JJ
16ddLL
16cc
16ff
16ee-JJ
=49
8.ddL
16ccJk
16ddLL
16ccJ
8b-J
!!linebreak:original
=50
16b-LL
16aa-X
16ff
16ggJJ
16ee-LL
16ff
16dd
16ee-JJ
=51
16ccLL
16ee-JJ
4dd
8qdd/
16ccLL
16b-JJ
*>eM
*g:
!LO:TX:a:i:t=G-minor
=52
*>B2
16aLL
16b-JJ
4cc
16ffLL
16dd-XJJ
=53
4cc
8b-
24dd-XLL
24cc
24b-JJ
=54
16aLL
16b-JJ
4cc
16b-LL
16aJJ
=55
4g
4gg
=56
16aLL
16b-JJ
4cc
16ffLL
16dd-XJJ
!!pagebreak:original
=57
8ccL
16ffL
16eenJJ
16dd-XLL
16cc
16b-
16aJJ
=58
16b-LL
16cc
16ddn
16b-JJ
8ccL
16b-L
16aJJ
=59
2g
=60
*tremolo
32ggLLL
32gg
32gg
32gg
32gg
32gg
32gg
32gg
32gg
32gg
32gg
32gg
32gg
32gg
32gg
32ggJJJ
=61
32ggLLL
32gg
32gg
32gg
32gg
32gg
32gg
32gg
32gg
32gg
32gg
32gg
32gg
32gg
32gg
32ggJJJ
=62
32ggLLL
32gg
32gg
32gg
32gg
32gg
32gg
32gg
32gg
32gg
32gg
32gg
32gg
32gg
32gg
32ggJJJ
!!linebreak:original
=63
32ggLLL
32gg
32gg
32gg
32gg
32gg
32gg
32gg
32gg
32gg
32gg
32gg
32gg
32gg
32gg
32ggJJJ
*Xtremolo
=64
16ggLL
16d
16en
16f#XJJ
16gLL
16d
16e
16f#JJ
=65
16gLL
16d
16en
16f#XJJ
16gLL
16d
16e
16f#JJ
=66
4g
4r
=67
4gg
4r
=68
2G
==
*-
